packages/kaspersky-hexa-ui-icons/src/iconsSVGs/28x20/FlagMz.svg

<svg width="28" height="20" viewBox="0 0 28 20" fill="none" xmlns="http://www.w3.org/2000/svg">
<g clip-path="url(#clip0_5138_1469)">
<rect width="28" height="20" rx="2" fill="white"/>
<mask id="mask0_5138_1469" style="mask-type:luminance" maskUnits="userSpaceOnUse" x="0" y="0" width="28" height="20">
<rect width="28" height="20" rx="2" fill="white"/>
</mask>
<g mask="url(#mask0_5138_1469)">
<path fill-rule="evenodd" clip-rule="evenodd" d="M0 20H28V14.6667H0V20Z" fill="#FFE547"/>
<path fill-rule="evenodd" clip-rule="evenodd" d="M0 5.33333H28V0H0V5.33333Z" fill="#118C81"/>
<path fill-rule="evenodd" clip-rule="evenodd" d="M0 14.6667H28V5.33333H0V14.6667Z" fill="white"/>
<path fill-rule="evenodd" clip-rule="evenodd" d="M0 13.3333H28V6.66667H0V13.3333Z" fill="#262626"/>
<path fill-rule="evenodd" clip-rule="evenodd" d="M0 0L13.3333 10L0 20V0Z" fill="#EF2147"/>
<path fill-rule="evenodd" clip-rule="evenodd" d="M4.66666 11.2741L2.70738 12.6967L3.45494 10.3937L1.49647 8.96994L3.91778 8.96925L4.66666 6.66667L5.41555 8.96925L7.83685 8.96994L5.87838 10.3937L6.62595 12.6967L4.66666 11.2741Z" fill="#FDE444"/>
</g>
</g>
<defs>
<clipPath id="clip0_5138_1469">
<rect width="28" height="20" fill="white"/>
</clipPath>
</defs>
</svg>

<svg xmlns="http://www.w3.org/2000/svg" width="28" height="20" fill="none" viewBox="0 0 28 20"><g clip-path="url(#a)"><rect width="28" height="20" fill="#fff" rx="2"/><mask id="b" width="28" height="20" x="0" y="0" maskUnits="userSpaceOnUse" style="mask-type:luminance"><rect width="28" height="20" fill="#fff" rx="2"/></mask><g fill-rule="evenodd" clip-rule="evenodd" mask="url(#b)"><path fill="#ffe547" d="M0 20h28v-5.3333H0z"/><path fill="#118c81" d="M0 5.3333h28V0H0z"/><path fill="#fff" d="M0 14.6667h28V5.3333H0z"/><path fill="#262626" d="M0 13.3333h28V6.6667H0z"/><path fill="#ef2147" d="m0 0 13.3333 10L0 20z"/><path fill="#fde444" d="m4.6667 11.2741-1.9593 1.4226.7475-2.303-1.9584-1.4238 2.4213-.0007.7489-2.3025.7489 2.3026 2.4212.0006-1.9584 1.4238.7475 2.303z"/></g></g><defs><clipPath id="a"><path fill="#fff" d="M0 0h28v20H0z"/></clipPath></defs></svg>
